;FLAVOR:Marlin
;TIME:826
;Filament used: 0.872156m
;Layer height: 0.2
;MINX:148.3
;MINY:126.88
;MINZ:0.2
;MAXX:187.041
;MAXY:165.6
;MAXZ:6
;Generated with Cura_SteamEngine 4.6.1
M140 S105
M105
M190 S105
M104 S240
M105
M109 S240
M82 ;absolute extrusion mode
G21 ;metric values
G90 ;absolute positioning
M82 ;set extruder to absolute mode
M107 ;start with the fan off
G28 X0 Y0 ;move X/Y to min endstops
G28 Z0 ;move Z to min endstops
G1 Z15.0 F100 ;move the platform down 15mm
G92 E0 ;zero the extruded length
G1 F200 E3 ;extrude 3mm of feed stock
G92 E0 ;zero the extruded length again
G1 F100
G0 Y20 F100
M117 Printing...
G5
G92 E0
G92 E0
G1 F2400 E-6
;LAYER_COUNT:30
;LAYER:0
M107
M204 S3000
M205 X10 Y10
G1 F600 Z0.275
G0 F3000 X153.374 Y133.164 Z0.275
M204 S1800
M205 X8 Y8
;TYPE:SKIRT
G1 F600 Z0.2
G1 F2400 E0
G1 X153.817 Y132.697 E0.03117
G1 X154.886 Y131.685 E0.10246
G1 X155.363 Y131.279 E0.13279
G1 X156.524 Y130.394 E0.20349
G1 X157.056 Y130.033 E0.23462
G1 X158.305 Y129.281 E0.30522
G1 X158.865 Y128.983 E0.33594
G1 X160.196 Y128.366 E0.40699
G1 X160.79 Y128.129 E0.43796
G1 X162.172 Y127.663 E0.50859
G1 X162.78 Y127.494 E0.53915
G1 X164.207 Y127.178 E0.60993
G1 X164.841 Y127.074 E0.64104
G1 X166.292 Y126.916 E0.71172
G1 X166.925 Y126.881 E0.74242
G1 X168.392 Y126.88 E0.81346
G1 X169.025 Y126.914 E0.84416
G1 X170.476 Y127.07 E0.91483
G1 X171.113 Y127.174 E0.94609
G1 X172.542 Y127.489 E1.01695
G1 X173.149 Y127.657 E1.04745
G1 X174.53 Y128.121 E1.11801
G1 X175.125 Y128.358 E1.14902
G1 X176.455 Y128.973 E1.21998
G1 X177.012 Y129.268 E1.2505
G1 X178.264 Y130.019 E1.32121
G1 X178.799 Y130.381 E1.35249
G1 X179.961 Y131.265 E1.42319
G1 X180.441 Y131.673 E1.4537
G1 X181.51 Y132.684 E1.52495
G1 X181.951 Y133.149 E1.55599
G1 X182.888 Y134.252 E1.62607
G1 X183.27 Y134.753 E1.65658
G1 X184.098 Y135.971 E1.72791
G1 X184.43 Y136.522 E1.75906
G1 X185.111 Y137.806 E1.82944
G1 X185.376 Y138.379 E1.86002
G1 X185.92 Y139.74 E1.93099
G1 X186.124 Y140.342 E1.96178
G1 X186.518 Y141.754 E2.03277
G1 X186.656 Y142.381 E2.06386
G1 X186.891 Y143.812 E2.13408
G1 X186.96 Y144.445 E2.16492
G1 X187.04 Y145.911 E2.23602
G1 X187.041 Y146.547 E2.26682
G1 X186.962 Y148.015 E2.33801
G1 X186.894 Y148.643 E2.3686
G1 X186.661 Y150.075 E2.43886
G1 X186.524 Y150.699 E2.4698
G1 X186.133 Y152.112 E2.5408
G1 X185.927 Y152.723 E2.57202
G1 X185.384 Y154.084 E2.64298
G1 X185.12 Y154.655 E2.67345
G1 X184.441 Y155.938 E2.74374
G1 X184.111 Y156.488 E2.7748
G1 X183.283 Y157.709 E2.84625
G1 X182.903 Y158.209 E2.87666
G1 X181.968 Y159.313 E2.94672
G1 X181.523 Y159.783 E2.97806
G1 X180.454 Y160.795 E3.04935
G1 X179.977 Y161.201 E3.07968
G1 X178.816 Y162.086 E3.15038
G1 X178.289 Y162.444 E3.18123
G1 X177.038 Y163.199 E3.25199
G1 X176.467 Y163.502 E3.2833
G1 X175.141 Y164.115 E3.35404
G1 X174.554 Y164.349 E3.38464
G1 X173.17 Y164.816 E3.45538
G1 X172.56 Y164.986 E3.48604
G1 X171.132 Y165.302 E3.55687
G1 X170.499 Y165.406 E3.58793
G1 X169.048 Y165.564 E3.65862
G1 X168.415 Y165.599 E3.68932
G1 X166.948 Y165.6 E3.76036
G1 X166.315 Y165.566 E3.79106
G1 X164.864 Y165.41 E3.86173
G1 X164.226 Y165.306 E3.89303
G1 X162.798 Y164.991 E3.96385
G1 X162.194 Y164.823 E3.99421
G1 X160.809 Y164.358 E4.06496
G1 X160.214 Y164.122 E4.09596
G1 X158.889 Y163.51 E4.16664
G1 X158.328 Y163.213 E4.19738
G1 X157.074 Y162.46 E4.26821
G1 X156.541 Y162.099 E4.29939
G1 X155.379 Y161.215 E4.37009
G1 X154.899 Y160.807 E4.4006
G1 X153.83 Y159.796 E4.47185
G1 X153.389 Y159.331 E4.50289
G1 X152.451 Y158.227 E4.57304
G1 X152.066 Y157.721 E4.60383
G1 X151.239 Y156.502 E4.67517
G1 X150.914 Y155.963 E4.70565
G1 X150.232 Y154.681 E4.77597
G1 X149.962 Y154.099 E4.80704
G1 X149.419 Y152.739 E4.87795
G1 X149.214 Y152.133 E4.90893
G1 X148.821 Y150.718 E4.98005
G1 X148.685 Y150.101 E5.01065
G1 X148.449 Y148.671 E5.08084
G1 X148.38 Y148.035 E5.11182
G1 X148.3 Y146.57 E5.18287
G1 X148.3 Y145.933 E5.21371
G1 X148.379 Y144.466 E5.28486
G1 X148.447 Y143.834 E5.31564
G1 X148.681 Y142.402 E5.38591
G1 X148.816 Y141.786 E5.41645
G1 X149.206 Y140.373 E5.48743
G1 X149.413 Y139.758 E5.51886
G1 X149.956 Y138.397 E5.58982
G1 X150.221 Y137.824 E5.62039
G1 X150.901 Y136.54 E5.69075
G1 X151.227 Y135.997 E5.72142
G1 X152.053 Y134.776 E5.79281
G1 X152.438 Y134.268 E5.82368
G1 X153.374 Y133.164 E5.89377
M204 S3000
M205 X10 Y10
G0 F3000 X153.801 Y133.527
M204 S1800
M205 X8 Y8
G1 F2400 X154.202 Y133.104 E5.922
G1 X155.271 Y132.092 E5.99328
G1 X155.703 Y131.724 E6.02076
G1 X156.864 Y130.839 E6.09146
G1 X157.345 Y130.512 E6.11963
G1 X158.594 Y129.76 E6.19023
G1 X159.101 Y129.491 E6.21802
G1 X160.432 Y128.874 E6.28907
G1 X160.969 Y128.66 E6.31706
G1 X162.351 Y128.194 E6.38769
G1 X162.901 Y128.041 E6.41534
G1 X164.328 Y127.725 E6.48611
G1 X164.902 Y127.63 E6.51429
G1 X166.353 Y127.472 E6.58497
G1 X166.925 Y127.441 E6.61271
G1 X168.392 Y127.44 E6.68375
G1 X168.965 Y127.47 E6.71154
G1 X170.416 Y127.626 E6.78221
G1 X170.992 Y127.721 E6.81048
G1 X172.421 Y128.036 E6.88135
G1 X172.97 Y128.188 E6.90893
G1 X174.351 Y128.652 E6.97949
G1 X174.89 Y128.866 E7.00757
G1 X176.22 Y129.481 E7.07853
G1 X176.724 Y129.748 E7.10615
G1 X177.976 Y130.499 E7.17685
G1 X178.46 Y130.827 E7.20516
G1 X179.622 Y131.711 E7.27587
G1 X180.056 Y132.08 E7.30346
G1 X181.125 Y133.091 E7.37471
G1 X181.525 Y133.512 E7.40283
G1 X182.462 Y134.615 E7.47292
G1 X182.807 Y135.068 E7.50049
G1 X183.635 Y136.286 E7.57182
G1 X183.935 Y136.784 E7.59997
G1 X184.616 Y138.068 E7.67035
G1 X184.856 Y138.586 E7.698
G1 X185.4 Y139.947 E7.76898
G1 X185.584 Y140.492 E7.79684
G1 X185.978 Y141.904 E7.86783
G1 X186.104 Y142.472 E7.896
G1 X186.339 Y143.903 E7.96623
G1 X186.401 Y144.475 E7.99409
G1 X186.481 Y145.941 E8.06519
G1 X186.481 Y146.517 E8.09308
G1 X186.402 Y147.985 E8.16428
G1 X186.341 Y148.553 E8.19194
G1 X186.108 Y149.985 E8.2622
G1 X185.984 Y150.55 E8.29021
G1 X185.593 Y151.963 E8.36121
G1 X185.407 Y152.515 E8.38942
G1 X184.864 Y153.876 E8.46038
G1 X184.625 Y154.393 E8.48796
G1 X183.946 Y155.676 E8.55826
G1 X183.647 Y156.174 E8.58639
G1 X182.819 Y157.395 E8.65783
G1 X182.476 Y157.847 E8.68531
G1 X181.541 Y158.951 E8.75537
G1 X181.138 Y159.376 E8.78373
G1 X180.069 Y160.388 E8.85502
G1 X179.637 Y160.756 E8.8825
G1 X178.476 Y161.641 E8.9532
G1 X178 Y161.965 E8.98108
G1 X176.749 Y162.72 E9.05184
G1 X176.232 Y162.994 E9.08018
G1 X174.906 Y163.607 E9.15092
G1 X174.375 Y163.819 E9.17861
G1 X172.991 Y164.286 E9.24934
G1 X172.439 Y164.439 E9.27708
G1 X171.011 Y164.755 E9.34791
G1 X170.438 Y164.85 E9.37604
G1 X168.987 Y165.008 E9.44672
G1 X168.415 Y165.039 E9.47446
G1 X166.948 Y165.04 E9.5455
G1 X166.375 Y165.01 E9.57329
G1 X164.924 Y164.854 E9.64396
G1 X164.347 Y164.759 E9.67228
G1 X162.919 Y164.444 E9.7431
G1 X162.372 Y164.292 E9.77059
G1 X160.987 Y163.827 E9.84134
G1 X160.449 Y163.614 E9.86936
G1 X159.124 Y163.002 E9.94004
G1 X158.616 Y162.733 E9.96788
G1 X157.362 Y161.98 E10.03871
G1 X156.88 Y161.653 E10.06692
G1 X155.718 Y160.769 E10.13762
G1 X155.284 Y160.4 E10.16521
G1 X154.215 Y159.389 E10.23646
G1 X153.816 Y158.969 E10.26452
G1 X152.878 Y157.865 E10.33467
G1 X152.53 Y157.407 E10.36253
G1 X151.703 Y156.188 E10.43386
G1 X151.408 Y155.7 E10.46148
G1 X150.726 Y154.418 E10.5318
G1 X150.482 Y153.892 E10.55988
G1 X149.939 Y152.532 E10.63079
G1 X149.754 Y151.983 E10.65885
G1 X149.361 Y150.568 E10.72997
G1 X149.238 Y150.01 E10.75764
G1 X149.002 Y148.58 E10.82782
G1 X148.939 Y148.004 E10.85588
G1 X148.859 Y146.539 E10.92693
G1 X148.859 Y145.963 E10.95483
G1 X148.938 Y144.496 E11.02597
G1 X149 Y143.924 E11.05384
G1 X149.234 Y142.492 E11.1241
G1 X149.356 Y141.935 E11.15172
G1 X149.746 Y140.522 E11.2227
G1 X149.933 Y139.966 E11.25111
G1 X150.476 Y138.605 E11.32207
G1 X150.716 Y138.086 E11.34976
G1 X151.396 Y136.802 E11.42012
G1 X151.691 Y136.311 E11.44786
G1 X152.517 Y135.09 E11.51925
G1 X152.865 Y134.631 E11.54714
G1 X153.801 Y133.527 E11.61724
M204 S3000
M205 X10 Y10
G0 F3000 X154.228 Y133.889
M204 S1800
M205 X8 Y8
G1 F2400 X154.587 Y133.51 E11.64252
G1 X155.656 Y132.498 E11.7138
G1 X156.042 Y132.169 E11.73836
G1 X157.203 Y131.284 E11.80906
G1 X157.634 Y130.992 E11.83427
G1 X158.883 Y130.24 E11.90487
G1 X159.336 Y129.999 E11.92972
G1 X160.667 Y129.382 E12.00077
G1 X161.148 Y129.191 E12.02583
G1 X162.53 Y128.725 E12.09646
G1 X163.022 Y128.588 E12.12119
G1 X164.449 Y128.272 E12.19197
G1 X164.963 Y128.187 E12.2172
G1 X166.414 Y128.029 E12.28788
G1 X166.926 Y128.001 E12.31271
G1 X168.393 Y128 E12.38375
G1 X168.905 Y128.027 E12.40858
G1 X170.356 Y128.183 E12.47925
G1 X170.872 Y128.268 E12.50458
G1 X172.301 Y128.583 E12.57544
G1 X172.792 Y128.719 E12.60011
G1 X174.173 Y129.183 E12.67067
G1 X174.655 Y129.375 E12.69579
G1 X175.985 Y129.99 E12.76675
G1 X176.436 Y130.228 E12.79145
G1 X177.688 Y130.979 E12.86215
G1 X178.121 Y131.273 E12.88749
G1 X179.283 Y132.157 E12.9582
G1 X179.672 Y132.487 E12.9829
G1 X180.741 Y133.498 E13.05415
G1 X181.098 Y133.874 E13.07926
G1 X182.035 Y134.977 E13.14935
G1 X182.344 Y135.383 E13.17406
G1 X183.172 Y136.601 E13.24538
G1 X183.44 Y137.047 E13.27058
G1 X184.121 Y138.331 E13.34096
G1 X184.336 Y138.794 E13.36568
G1 X184.88 Y140.155 E13.43666
G1 X185.045 Y140.643 E13.46161
G1 X185.439 Y142.055 E13.5326
G1 X185.551 Y142.563 E13.55779
G1 X185.786 Y143.994 E13.62802
G1 X185.842 Y144.506 E13.65296
G1 X185.922 Y145.972 E13.72406
G1 X185.922 Y146.487 E13.749
G1 X185.843 Y147.955 E13.82019
G1 X185.788 Y148.463 E13.84494
G1 X185.555 Y149.895 E13.9152
G1 X185.445 Y150.4 E13.94022
G1 X185.054 Y151.813 E14.01122
G1 X184.887 Y152.308 E14.03652
G1 X184.344 Y153.669 E14.10748
G1 X184.13 Y154.132 E14.13218
G1 X183.451 Y155.415 E14.20248
G1 X183.184 Y155.86 E14.22761
G1 X182.356 Y157.081 E14.29905
G1 X182.048 Y157.485 E14.32365
G1 X181.113 Y158.589 E14.39372
G1 X180.753 Y158.97 E14.4191
G1 X179.684 Y159.982 E14.49039
G1 X179.298 Y160.311 E14.51495
G1 X178.137 Y161.196 E14.58564
G1 X177.711 Y161.485 E14.61057
G1 X176.46 Y162.24 E14.68133
G1 X175.997 Y162.486 E14.70672
G1 X174.671 Y163.099 E14.77747
G1 X174.196 Y163.288 E14.80222
G1 X172.812 Y163.755 E14.87296
G1 X172.318 Y163.893 E14.8978
G1 X170.89 Y164.209 E14.96862
G1 X170.377 Y164.293 E14.9938
G1 X168.926 Y164.451 E15.06448
G1 X168.414 Y164.479 E15.08931
G1 X166.947 Y164.48 E15.16035
G1 X166.435 Y164.453 E15.18518
G1 X164.984 Y164.297 E15.25585
G1 X164.468 Y164.212 E15.28118
G1 X163.04 Y163.897 E15.35199
G1 X162.55 Y163.761 E15.37662
G1 X161.165 Y163.296 E15.44737
G1 X160.684 Y163.105 E15.47243
G1 X159.359 Y162.493 E15.54311
G1 X158.905 Y162.253 E15.56798
G1 X157.651 Y161.5 E15.63882
G1 X157.219 Y161.207 E15.66409
G1 X156.057 Y160.323 E15.7348
G1 X155.668 Y159.993 E15.7595
G1 X154.599 Y158.982 E15.83075
G1 X154.243 Y158.606 E15.85583
G1 X153.305 Y157.502 E15.92598
G1 X152.993 Y157.092 E15.95093
G1 X152.166 Y155.873 E16.02227
G1 X151.903 Y155.437 E16.04693
G1 X151.221 Y154.155 E16.11725
G1 X151.002 Y153.684 E16.1424
G1 X150.459 Y152.324 E16.21332
G1 X150.294 Y151.833 E16.2384
G1 X149.901 Y150.418 E16.30952
G1 X149.791 Y149.919 E16.33427
G1 X149.555 Y148.489 E16.40445
G1 X149.498 Y147.974 E16.42955
G1 X149.418 Y146.509 E16.5006
G1 X149.418 Y145.993 E16.52558
G1 X149.497 Y144.526 E16.59673
G1 X149.552 Y144.014 E16.62167
G1 X149.786 Y142.582 E16.69193
G1 X149.896 Y142.084 E16.71663
G1 X150.286 Y140.671 E16.78762
G1 X150.453 Y140.173 E16.81305
G1 X150.996 Y138.812 E16.88401
G1 X151.21 Y138.348 E16.90876
G1 X151.89 Y137.064 E16.97912
G1 X152.154 Y136.625 E17.00393
G1 X152.98 Y135.404 E17.07532
G1 X153.292 Y134.993 E17.1003
G1 X154.228 Y133.889 E17.1704
M204 S3000
M205 X10 Y10
G0 F3000 X154.655 Y134.251
M204 S1800
M205 X8 Y8
G1 F2400 X154.972 Y133.917 E17.1927
G1 X156.041 Y132.905 E17.26398
G1 X156.382 Y132.615 E17.28566
G1 X157.543 Y131.73 E17.35636
G1 X157.923 Y131.472 E17.3786
G1 X159.172 Y130.72 E17.4492
G1 X159.572 Y130.508 E17.47112
G1 X160.903 Y129.891 E17.54217
G1 X161.327 Y129.721 E17.56429
G1 X162.709 Y129.255 E17.63492
G1 X163.143 Y129.134 E17.65674
G1 X164.57 Y128.818 E17.72752
G1 X165.023 Y128.744 E17.74974
G1 X166.474 Y128.586 E17.82043
G1 X166.926 Y128.561 E17.84235
G1 X168.393 Y128.56 E17.91339
G1 X170.296 Y128.74 E18.00596
G1 X170.751 Y128.814 E18.02828
G1 X172.18 Y129.129 E18.09915
G1 X172.614 Y129.25 E18.12096
G1 X173.995 Y129.714 E18.19152
G1 X174.42 Y129.883 E18.21366
G1 X175.75 Y130.498 E18.28462
G1 X176.147 Y130.708 E18.30637
G1 X177.399 Y131.459 E18.37708
G1 X177.782 Y131.718 E18.39947
G1 X178.944 Y132.602 E18.47017
G1 X179.287 Y132.894 E18.49198
G1 X180.356 Y133.905 E18.56324
G1 X180.671 Y134.237 E18.5854
G1 X181.608 Y135.34 E18.65549
G1 X181.88 Y135.698 E18.67726
G1 X182.708 Y136.916 E18.74858
G1 X182.945 Y137.309 E18.77081
G1 X183.626 Y138.593 E18.84119
G1 X183.816 Y139.002 E18.86303
G1 X184.36 Y140.363 E18.93401
G1 X184.505 Y140.793 E18.95598
G1 X184.899 Y142.205 E19.02698
G1 X184.998 Y142.653 E19.04919
G1 X185.233 Y144.084 E19.11942
G1 X185.283 Y144.536 E19.14144
G1 X185.363 Y146.002 E19.21254
G1 X185.363 Y146.457 E19.23458
G1 X185.284 Y147.925 E19.30577
G1 X185.235 Y148.374 E19.32764
G1 X185.002 Y149.806 E19.3979
G1 X184.905 Y150.251 E19.41996
G1 X184.514 Y151.664 E19.49096
G1 X184.367 Y152.1 E19.51324
G1 X183.824 Y153.461 E19.5842
G1 X183.635 Y153.87 E19.60602
G1 X182.956 Y155.153 E19.67631
G1 X182.72 Y155.545 E19.69847
G1 X181.892 Y156.766 E19.76991
G1 X181.621 Y157.123 E19.79162
G1 X180.686 Y158.227 E19.86168
G1 X180.368 Y158.563 E19.88408
G1 X179.299 Y159.575 E19.95537
G1 X178.958 Y159.865 E19.97705
G1 X177.797 Y160.75 E20.04774
G1 X177.421 Y161.006 E20.06977
G1 X176.17 Y161.761 E20.14053
G1 X175.762 Y161.977 E20.16289
G1 X174.436 Y162.59 E20.23363
G1 X174.017 Y162.758 E20.25549
G1 X172.633 Y163.225 E20.32623
G1 X172.197 Y163.346 E20.34814
G1 X170.769 Y163.662 E20.41897
G1 X170.317 Y163.736 E20.44115
G1 X168.866 Y163.894 E20.51183
G1 X168.414 Y163.919 E20.53375
G1 X166.947 Y163.92 E20.60479
G1 X166.495 Y163.896 E20.62671
G1 X165.044 Y163.74 E20.69739
G1 X164.588 Y163.665 E20.71976
G1 X163.16 Y163.35 E20.79058
G1 X162.728 Y163.231 E20.81228
G1 X161.343 Y162.766 E20.88303
G1 X160.919 Y162.597 E20.90513
G1 X159.594 Y161.985 E20.97581
G1 X159.193 Y161.773 E20.99778
G1 X157.939 Y161.02 E21.06861
G1 X157.558 Y160.762 E21.0909
G1 X156.396 Y159.878 E21.1616
G1 X156.053 Y159.586 E21.18342
G1 X154.984 Y158.575 E21.25467
G1 X154.669 Y158.243 E21.27683
G1 X153.731 Y157.139 E21.34699
G1 X153.456 Y156.778 E21.36896
G1 X152.629 Y155.559 E21.4403
G1 X152.397 Y155.174 E21.46207
G1 X151.715 Y153.892 E21.53239
G1 X151.522 Y153.476 E21.5546
G1 X150.979 Y152.116 E21.62551
G1 X150.833 Y151.683 E21.64764
G1 X150.44 Y150.268 E21.71876
G1 X150.343 Y149.828 E21.74058
G1 X150.107 Y148.398 E21.81076
G1 X150.057 Y147.943 E21.83293
G1 X149.977 Y146.478 E21.90398
G1 X149.977 Y146.023 E21.92602
G1 X150.056 Y144.556 E21.99716
G1 X150.105 Y144.105 E22.01913
G1 X150.339 Y142.673 E22.0894
G1 X150.435 Y142.233 E22.11121
G1 X150.825 Y140.82 E22.18219
G1 X150.973 Y140.381 E22.20463
G1 X151.516 Y139.02 E22.27559
G1 X151.705 Y138.61 E22.29745
G1 X152.385 Y137.326 E22.36781
G1 X152.618 Y136.939 E22.38969
G1 X153.444 Y135.718 E22.46108
G1 X153.719 Y135.355 E22.48313
G1 X154.655 Y134.251 E22.55322
M204 S3000
M205 X10 Y10
G0 F3000 X155.083 Y134.613
M204 S1800
M205 X8 Y8
G1 F2400 X155.357 Y134.324 E22.57251
G1 X156.426 Y133.312 E22.64379
G1 X156.721 Y133.06 E22.66258
G1 X157.882 Y132.175 E22.73328
G1 X158.211 Y131.952 E22.75252
G1 X159.46 Y131.2 E22.82313
G1 X159.807 Y131.016 E22.84215
G1 X161.138 Y130.399 E22.91319
G1 X161.506 Y130.252 E22.93238
G1 X162.888 Y129.786 E23.00301
G1 X163.264 Y129.681 E23.02192
G1 X164.691 Y129.365 E23.09269
G1 X165.084 Y129.3 E23.11198
G1 X166.535 Y129.142 E23.18267
G1 X166.927 Y129.121 E23.20168
G1 X168.394 Y129.12 E23.27272
G1 X170.236 Y129.297 E23.36233
G1 X170.631 Y129.361 E23.38171
G1 X172.06 Y129.676 E23.45257
G1 X172.435 Y129.781 E23.47143
G1 X173.816 Y130.245 E23.54198
G1 X174.185 Y130.391 E23.5612
G1 X175.515 Y131.006 E23.63216
G1 X175.859 Y131.189 E23.65103
G1 X177.111 Y131.94 E23.72173
G1 X177.443 Y132.164 E23.74113
G1 X178.605 Y133.048 E23.81183
G1 X178.902 Y133.3 E23.83069
